priv/static/svgs/icons_new/sport-athletics.svg

<svg width="32" height="32" viewBox="0 0 32 32" fill="none" xmlns="http://www.w3.org/2000/svg">
<path d="M17.8947 13.1737L21.1157 15.2227C21.3114 15.3883 21.5514 15.469 21.7893 15.469C22.0598 15.469 22.3293 15.3639 22.5335 15.1579L25.6913 11.972C26.1029 11.5579 26.1029 10.8846 25.6913 10.4704C25.2808 10.0552 24.6135 10.0552 24.2029 10.4704L21.7143 12.64L17.9294 9.77381M11.6022 15.8545L9.07071 22.0595L6.18447 26.3381C5.85606 26.8223 5.97816 27.4828 6.45709 27.8142C6.63919 27.9405 6.84656 28 7.05076 28C7.38654 28 7.71601 27.8386 7.92021 27.5381L14.6306 19.1858M21.0525 6.12389C21.0525 7.29689 20.11 8.24779 18.9473 8.24779C17.7846 8.24779 16.8421 7.29689 16.8421 6.12389C16.8421 4.9509 17.7846 4 18.9473 4C20.11 4 21.0525 4.9509 21.0525 6.12389ZM21.0083 20.1692C20.8967 19.7795 20.6694 19.445 20.3767 19.1816C20.2946 19.1083 20.1588 19.0021 20.0725 18.9458L15.6842 16.3919L18.2642 12.6358C18.6515 12.0198 18.7241 11.2478 18.4578 10.5703C18.1915 9.89274 17.6147 9.37982 16.9147 9.19929L10.4717 7.53735C10.1117 7.44389 9.72964 7.55009 9.46649 7.81558L6.30868 11.0014C5.89711 11.4156 5.89711 12.0888 6.30868 12.503C6.71919 12.9182 7.38654 12.9182 7.79706 12.503L10.5307 9.74513L13.8401 10.5989L11.637 15.7664C11.4075 16.3058 11.4096 16.9239 11.6443 17.4612C11.8791 17.9986 12.3285 18.4181 12.879 18.6113L17.8947 20.886L15.7042 24.8949C15.3411 25.3526 15.4148 26.0216 15.8684 26.388C16.0632 26.5451 16.2947 26.6205 16.5252 26.6205C16.8337 26.6205 17.14 26.4846 17.3473 26.2223L20.6283 22.085C21.0546 21.5476 21.1957 20.8319 21.0072 20.1703L21.0083 20.1692Z" stroke="black" stroke-miterlimit="10"/>
</svg>

<svg width="32" height="32" viewBox="0 0 32 32" fill="none" xmlns="http://www.w3.org/2000/svg">
  <symbol id="item" viewBox="0 0 32 32" stroke-width="1" fill="none">
    <path d="m17.895 13.174 3.22 2.049a1.046 1.046 0 0 0 1.418-.065l3.158-3.186a1.067 1.067 0 0 0 0-1.502 1.045 1.045 0 0 0-1.488 0l-2.489 2.17-3.785-2.866m-6.327 6.08L9.071 22.06l-2.887 4.278a1.068 1.068 0 0 0 .273 1.476 1.049 1.049 0 0 0 1.463-.276l6.71-8.352m6.422-13.062a2.115 2.115 0 0 1-2.105 2.124 2.115 2.115 0 0 1-2.105-2.124c0-1.173.943-2.124 2.105-2.124 1.163 0 2.105.95 2.105 2.124Zm-.044 14.045a2.118 2.118 0 0 0-.631-.987 3.087 3.087 0 0 0-.304-.236l-4.389-2.554 2.58-3.756c.387-.616.46-1.388.194-2.066a2.277 2.277 0 0 0-1.543-1.37l-6.443-1.663a1.045 1.045 0 0 0-1.006.279L6.31 11a1.067 1.067 0 0 0 0 1.502c.41.415 1.078.415 1.488 0l2.734-2.758 3.31.854-2.204 5.167a2.15 2.15 0 0 0 .007 1.695 2.12 2.12 0 0 0 1.235 1.15l5.016 2.275-2.19 4.009a1.07 1.07 0 0 0 .163 1.493 1.045 1.045 0 0 0 1.479-.166l3.281-4.137a2.142 2.142 0 0 0 .38-1.915Z" stroke="currentColor" stroke-miterlimit="10"/>
  </symbol>
</svg>
